!!!COM: Felix Mendelssohn
!!!CNT: Deutsch
!!!TXO: Deutsch
!!!OTL: Maienlied
!!!LYR: Jacob von der Warte
!!!OPS: Op. 8
!!!ONM: No. 7
!!!ENC: Daniel Alt & Leigh VanHandel
!!!YOR: Sa2mmtliche Lieder fu2r eine Singstimme
!!!YOR: Neu revidirt von Dr. L. Benda, Ausgabe fu2r mittlere Stimme
!!!YOR: Braunschweig. Henry Litolff's Verlag. Boston and New York: Arthur P. Schmidt.
!!!ODT: 1827/
!!NB: Date is publication date
**kern	**silbe
*staff1	*
=1-	=1
*clefG2	*
*k[b-]	*
*M6/8	*
2.r	.
=2	=2
2.r	.
=3	=3
2.r	.
=4	=4
{4a	{Man
8g	soll
4b-	ho2-
8a	-ren
=5	=5
4a	su2-
8g	-sses
4dd	Sin-
8cc	-gen
=6	=6
8cc	in
8b-	|
8a	den
4g	Au-
8a	-en
=7	=7
4g	u2-
8a	-ber-
4.b-}	-all,}
=8	=8
{4a	{lieb-
8g	-lich
4b-	hell
8a	Ge-
=9	=9
4a	-sang
8g	er-
4dd	-klin-
8cc	-gen
=10	=10
[4.cc	vor-
8cc]	|
8ee	|
8dd	-aus
=11	=11
[4.cc	vor-
8cc]	|
8ee	|
8dd	der
=12	=12
8cc	Nach-
8e	|
8f	|
8.g	|
16a	|
8g	-ti-
=13	=13
4.c}	-gall!}
4r	.
8r	.
=14	=14
{4g	{Schau-
8f	-et
4a	auf
8g	den
=15	=15
4cc	An-
8a	-ger
4b-}	breit,}
8r	.
=16	=16
{4g	{schau-
8a	-et
4b-	an
8f	die
=17	=17
8dd	lich-
8cc	|
8b-	-te
4a	Hai-
8g	-de,
=18	=18
4a	wie
8g	sie
4b-	schon
8a	sich
=19	=19
4a	mit
8g	dem
4dd	Klei-
8cc}	-de}
=20	=20
{8cc	{zu
8b-	|
8a	dem
[4.g	Mai-
=21	=21
8g]	|
8b-	|
8a	|
[4.g	|
=22	=22
8g]	|
8a	|
8g	-en
8cc	hat
16b-	|
16a	|
16g	be-
16a	|
=23	=23
4f}	-kleid�t.}
8r	.
4r	.
8r	.
==	==
*-	*-
